!!!OTL: 573a. Kraenselkraut.
!!!ARE: Europa, Mitteleuropa, Deutschland, Schlesien
!!!SCT: E0573
!!!TXL: @@DE
!!!YEM: Copyright 1995, estate of Helmut Schaffrath.
**kern	**text
*ICvox	*
*M2/4	*
*k[f#]	*
*G:	*
=1	=1
!LO:TX:a:t=Nicht geschwind.	!
!LO:TX:a:t=Schleſiſch.	!
{8.dd	Ro-
16dd	-ſel,
8dd	wenn
8b	du
=2	=2
8g	mei-
8b/	-ne
4b/}	wärſt,
=3	=3
{8d	nun
8a	ja
4a	ja,
=4	=4
8g	nun
8b/	ja
4b/}	ja!
=5	=5
{8.dd	und
16dd	nach
8dd	mei-
8b	-nem
=6	=6
8g	Wil-
8b/	-len
4b/}	thätſt,
=7	=7
{8d	nun
8a	ja
4a	ja,
=8	=8
4g	nu!
4r}	.
==	==
!!!AGN: Liebes - Lied
!!!ONB: ESAC (Essen Associative Code) Database: ERK1
!!!AMT: simple duple
!!!AIN: vox
!!!EED: Helmut Schaffrath
!!!EEV: 1.0
!!!GTL: Liebeslieder [Neuere (aus dem 18. bis 19. Jahrh.) - Liebeslust]
!!!URL-scan: https://rosdok.uni-rostock.de/mcrviewer/recordIdentifier/rosdok_ppn745177662/iview2/phys_0403.iview2?x=-128.77276441889308&y=1622.4235730471555&scale=0.5870222003877485&rotation=0&layout=singlePageLayout
!!!ENC: Anna Maria Matuszewska
!!!EEV: 2024/11/12
*-	*-
